X:1
T:The Carter
M:3/4
L:1/4
K:Bb
B/2-c/2| d B/2B/2 d| c A c| dB/2-c/2d/2-e/2| c2B/2-c/2| d c B| A G G|\
 D G A| G2B/2-c/2| d B d| c A c| dB/2-c/2d/2-e/2| c c B/2c/2| d c B|\
 A G G/2G/2| D G A| G G||
